X:39
T:Derrire chez nous y'a un tang
R:
N:
O:France
Z:<anamnese@laposte.net> -- http://anamnese.fr.st
M:6/8
L:1/8
Q:1/4=90
K:Bb
D | G2 A B3 | B c B A2 D | G2 A B3 | B c B A3 |
z2 A A2 A | B2 G G2 G | F2 D G2 B | A2 G ^F3 |
D3 z2 D | G2 A B3 | B c B A2 G/ A/ | B2 A G2 {A/G/}^F | G3 z2 z ||
W:Derrire chez nous, y'a un tang,
W:Dedans mon coeur, y'a un amant,
W:Trois beaux canards y vont nageant.
W:
W:   Y'a pas d'amour sans peine,
W:   Dedans mon coeur, y'a un amant,
W:   Je ne sais s'il m'aime.
W:
W:Trois beaux canards y vont nageant.
W:Dedans mon coeur, y'a un amant,
W:Le fils du roi y va chassant.
